!!!COM: Mozart
!!!OTL: 12 Variations on "Ah Vous dirais-je, Maman" for the Piano
!!!Variation: 12 a2
**function	**harm	**kern	**kern
*	*	*clefF4	*clefG2
*	*	*k[]	*k[]
*M3/4	*M3/4	*M3/4	*M3/4
*C:	*C:	*C:	*C:
=305	=305	=305	=305
2.T	C:maj	(16CLL	4e 4g 4cc
.	.	16c	.
.	.	16B	.
.	.	16cJJ	.
.	.	16dLL	4r
.	.	16c	.
.	.	16B	.
.	.	16cJJ	.
.	.	16dLL	(8.ccL
.	.	16c	.
.	.	16B	.
.	.	16cJJ)	32bLL
.	.	.	32ccJJJ
=306	=306	=306	=306
2.T	C:maj/3	(16ELL	4gg)
.	.	16c	.
.	.	16B	.
.	.	16cJJ	.
.	.	16dLL	4r
.	.	16c	.
.	.	16B	.
.	.	16cJJ	.
.	.	16dLL	(8.ccL
.	.	16c	.
.	.	16B	.
.	.	16cJJ)	32bLL
.	.	.	32ccJJJ)
=307	=307	=307	=307
2.T	F:maj	(16FLL	4cc 4gg 4aa
.	.	16c	.
.	.	16B	.
.	.	16cJJ	.
.	.	16dLL	4cc 4ff 4aa
.	.	16c	.
.	.	16B	.
.	.	16cJJ	.
.	.	16dLL	4cc 4ff 4aa
.	.	16c	.
.	.	16B	.
.	.	16cJJ)	.
=308	=308	=308	=308
2T	C:maj	(16CLL	4cc 4ee 4gg
.	.	16c	.
.	.	16B	.
.	.	16cJJ	.
.	.	16dLL	4r
.	.	16c	.
.	.	16B	.
.	.	16cJJ)	.
4T	C#:dim	(16C#LL	(8.ggL
.	.	16c#	.
.	.	16B	.
.	.	16c#JJ)	32ff#LL
.	.	.	32ggJJJ
=309	=309	=309	=309
2T	D:maj	(16DLL	4ff#)
.	.	16d	.
.	.	16c#	.
.	.	16dJJ	.
.	.	16eLL	4r
.	.	16d	.
.	.	16c#	.
.	.	16dJJ)	.
4T	B:dim	(16BBLL	(8.ffL
.	.	16B	.
.	.	16A	.
.	.	16BJJ)	32eeLL
.	.	.	32ffJJJ
=310	=310	=310	=310
2T	C:maj	(16CLL	4ee)
.	.	16c	.
.	.	16B	.
.	.	16cJJ	.
.	.	16dLL	4r
.	.	16c	.
.	.	16B	.
.	.	16cJJ)	.
4T	A:min	(16AALL	(8.ccL
.	.	16A	.
.	.	16G#	.
.	.	16AJJ)	32bLL
.	.	.	32ccJJJ
=311	=311	=311	=311
2P	D:min/b3	(16FFLL	4dd
.	.	16F	.
.	.	16E	.
.	.	16FJJ	.
.	.	16GLL	4ff)
.	.	16F	.
.	.	16E	.
.	.	16FJJ)	.
4D	G:7	(16GGLL	4d 4f 4b
.	.	16G	.
.	.	16F#	.
.	.	16GJJ)	.
=312	=312	=312	=312
2T	C:maj/3	(16EELL	4e 4g 4cc
.	.	16E	.
.	.	16D	.
.	.	16EJJ	.
.	.	16FLL	4r
.	.	16E	.
.	.	16D	.
.	.	16EJJ)	.
*-	*-	*-	*-
!!!EMD: Edited in humdrumR 0.7.0.3 on 2024-01-19
